X:27
T:Mount Calvery  LM
S:John Moore's Book 3
Z:Transcribed by John Adams 05/2021  
%%VWML:Moore1-4495-p45-0
F:https://www.vwml.org/record/Moore3/4495/p45
M:C
L:1/8
K:Gmaj
V:1
G2AG/A/ B2G2|F>E F>G A2F2|G2A2(Ad2d)|(f>e) d^c d4||B3B B2zd|(ed) (cB)c2B2|B3B B3B| B2B2B4||\
M:3/4 
(B3 e) ed|(dc) !fermata!B2z2|
V:2
z8|z8|z8|z8||g3g .g2zg| .g2.g2.g2.g2|g>fe ^de3g|gf e^d e4||\
M:3/4
z6|z6|
V:3
"Air"B2cB/c/ d2B2|A>G A>B c2A2|B (c2B/c/)d3B|(A>G)(FE)D4||d3d.d2zg|(gf) (ed)e2d2|(e/^d/e/f/g) fe3b|(BA) (GF)E4||\
M:3/4
(G3c) (cB)|(BA) !fermata!G2 z2|
V:4 clef=bass
G,2G,2G,2G,2|D,2D,2D,2D,2|G,2E,2F,2G,2|A,2A,,2D,4||G,3G,.G,2zG,|G,2G,2B,2G,2|E,3B,, (E,F,G,)  E,|B,2B,,2E,4||\
M:3/4
z6|z6|

